X: 31170
T: Paddy Fahey's
R: reel
M: 4/4
K: Adorian
|:Bd|:gfea gedB|G2 BG dG (3Bcd|gfea gedB|GABd eA A2|
gfea gedB|G2 BG dG B2|bagb a2 ge|d2 (3Bcd eA A2:|
|:c2AE cAFA|GdBG dG (3Bcd|c2AE cAFA|GedB eA A2|
c2AE cAFA|GdBG dG B2|bagb a2 ge|d2 (3Bcd eA A2:|

